img/e/exeloncorp.com.svg

<svg xmlns="http://www.w3.org/2000/svg" width="40" height="40" viewBox="0 0 40 40" fill="none">
<g id="Group_5400">
<path id="Vector_2" d="M39.4138 24.0845C38.8407 22.4437 37.9113 20.7622 37.0774 19.3362C36.0121 17.5102 35.7072 15.7249 36.0599 13.3582C36.5742 9.90987 35.6705 6.75048 33.639 4.90596C32.3055 3.6948 29.8626 2.46883 25.8107 3.52813C22.5119 4.38742 19.4666 2.75773 17.02 1.44656C15.1391 0.439115 13.6514 -0.357214 12.5052 0.165029C11.8403 0.468745 11.3811 1.1947 11.1019 2.38364C10.3672 5.52451 9.65824 7.69497 8.86843 9.21725C8.21087 10.484 7.50922 11.2951 6.52839 11.9211C4.08917 13.4804 2.29649 15.2175 1.20178 17.0805C0.235643 18.7436 -0.161098 20.5103 0.0593136 22.1882C0.25401 23.6586 0.918919 25.0475 1.97689 26.1957C3.00548 27.3143 4.35367 28.1514 5.8745 28.6255C7.07942 28.9995 8.04189 29.6551 8.81333 30.6255C9.54803 31.5515 10.1174 32.7775 10.5509 34.3701C10.9366 35.7924 11.5538 36.9851 12.384 37.9258C13.2105 38.8629 14.2061 39.4926 15.3412 39.7963C15.8481 39.9333 16.3698 40 16.9061 40C17.7253 40 18.5776 39.8407 19.4445 39.5185C20.9543 38.9629 22.4531 37.9444 23.9042 36.4924C25.3148 35.0813 26.6116 34.1886 27.9818 33.6886C29.194 33.2442 30.3181 33.1664 31.5047 33.0812C32.8566 32.9849 34.2562 32.8849 35.9129 32.2478C37.9187 31.4737 39.2007 30.3181 39.7224 28.8144C40.1742 27.5106 40.075 25.9661 39.4211 24.0845H39.4138ZM36.5374 23.9882C36.2913 26.6809 35.0203 28.8921 32.7647 30.5626C31.7729 31.2922 30.8067 31.7737 29.8222 32.1923C30.5018 31.67 31.141 31.0922 31.7325 30.4515C33.1247 28.944 34.1827 27.2069 34.877 25.2846C35.5492 23.4289 35.8542 21.4844 35.7844 19.5029C35.7697 19.0695 35.7329 18.6399 35.6815 18.2139C35.7513 18.3547 35.8137 18.488 35.8799 18.6288C36.464 20.5622 36.688 22.3585 36.5411 23.9882H36.5374ZM21.1674 34.6998C20.9911 34.7072 20.8147 34.7109 20.6384 34.7109C16.9502 34.7109 13.453 33.3256 10.7419 30.7774C7.89862 28.1069 6.26023 24.4845 6.12063 20.5696C5.98104 16.6546 7.36596 12.9211 10.0109 10.058C12.6595 7.19124 16.2522 5.53932 20.1351 5.39858C20.3115 5.39117 20.4878 5.38747 20.6641 5.38747C24.3523 5.38747 27.8495 6.77271 30.5606 9.32096C33.4039 11.9914 35.0423 15.6138 35.1819 19.5288C35.3215 23.4438 33.9366 27.1772 31.2916 30.0403C28.643 32.9071 25.0503 34.559 21.1674 34.6998ZM30.9684 8.8765C29.4732 7.47274 27.7504 6.40603 25.8438 5.706C24.7821 5.31709 23.6874 5.05042 22.578 4.90967C26.5711 4.50595 29.9067 6.26528 31.8757 9.80987C31.5855 9.48763 31.288 9.17651 30.9684 8.8765ZM14.4595 6.11342C12.6081 6.94679 10.966 8.13573 9.57375 9.6432C9.52966 9.69135 9.48925 9.7432 9.44517 9.79135C9.61415 9.41356 9.78314 9.00984 9.95947 8.57649C10.1358 8.23573 10.3158 7.89127 10.5068 7.5283C11.9285 4.86893 14.364 4.96523 17.4461 5.08745C17.5012 5.08745 17.56 5.09116 17.6151 5.09486C16.5314 5.31709 15.4771 5.65414 14.4595 6.11342ZM5.51817 20.5844C5.58797 22.5659 6.02879 24.4845 6.82962 26.2846C7.30351 27.3513 7.89494 28.3514 8.59291 29.2736C6.70105 27.8328 5.40429 25.8624 4.91571 23.6512C4.41612 21.3881 4.75775 18.9695 5.89655 16.599C5.59899 17.8991 5.46674 19.2325 5.5145 20.5844H5.51817ZM15.4514 34.385C17.1192 34.9998 18.8604 35.3072 20.6347 35.3072C20.8184 35.3072 21.0021 35.3072 21.1821 35.2961C22.0931 35.2628 22.9895 35.1479 23.8674 34.9553C22.3797 35.822 20.8184 36.2776 19.2865 36.2776C18.967 36.2776 18.651 36.2591 18.3388 36.2184C16.4983 35.9924 14.8636 35.1183 13.6109 33.6997C13.5301 33.6071 13.4493 33.5183 13.3648 33.4294C14.0334 33.7997 14.7277 34.1183 15.4514 34.385ZM33.5655 11.8248C33.2827 11.2655 32.9925 10.684 32.7096 10.1062C31.7178 8.08017 30.2704 6.4764 28.5255 5.47636C27.5006 4.89115 26.3911 4.51706 25.2083 4.34298C27.2471 4.13556 29.0655 4.56521 30.5128 5.6134C31.4422 6.2875 32.21 7.19495 32.7904 8.30981C33.3525 9.38763 33.7125 10.6099 33.8668 11.9396C33.8925 12.1692 33.9255 12.3915 33.9586 12.6137C33.8264 12.3507 33.6941 12.0877 33.5655 11.8248ZM17.4645 4.48373C15.9179 4.42076 14.4595 4.3652 13.1885 4.68744C12.2958 4.91337 11.5648 5.30969 10.966 5.8986C11.0689 5.6134 11.1681 5.3245 11.2746 5.02078C11.7852 3.54665 12.5309 3.03181 13.6403 3.03181C14.4779 3.03181 15.5212 3.32812 16.8253 3.72443C17.7584 4.00963 18.7943 4.32816 19.9037 4.52817C19.0772 4.54299 18.2653 4.51336 17.4682 4.48373H17.4645ZM5.97736 15.1842C4.29122 18.0398 3.72182 21.014 4.3353 23.7845C4.66591 25.2809 5.34184 26.6735 6.30798 27.881C4.43448 26.7254 3.20018 24.9512 2.88425 22.9215C2.5867 20.9955 2.99079 17.9658 6.44757 14.3471C6.29329 14.636 6.139 14.9175 5.98104 15.1842H5.97736ZM13.1665 34.1035C14.5183 35.6332 16.2816 36.5739 18.269 36.8184C18.6069 36.8591 18.9486 36.8814 19.2939 36.8814C20.4878 36.8814 21.6927 36.6221 22.8719 36.1295C20.8625 37.5258 18.7576 38.0629 16.851 37.6443C14.9371 37.2221 13.3611 35.8776 12.4097 33.859C12.1819 33.3738 11.8917 32.8849 11.5538 32.4034C12.0828 32.9145 12.6191 33.4812 13.1701 34.1072L13.1665 34.1035ZM31.3063 32.1626C31.9051 31.8552 32.5039 31.4996 33.1174 31.0441C35.5199 29.2699 36.8717 26.9143 37.1325 24.0401C37.2023 23.2623 37.1876 22.4474 37.0995 21.6067C37.5513 22.9771 37.7901 24.2068 37.8048 25.3031C37.8195 26.5217 37.5623 27.6032 37.037 28.5218C36.4493 29.5551 35.5052 30.4181 34.2305 31.0922C33.1908 31.6441 32.2504 31.933 31.3063 32.1589V32.1626ZM33.2423 5.35413C35.1231 7.06161 35.957 10.021 35.4721 13.2693C35.3509 14.0767 35.3105 14.8138 35.3399 15.5175C35.2333 15.2731 35.1268 15.0323 35.0129 14.7916C34.7705 13.8841 34.5905 12.9285 34.4656 11.8729C34.3039 10.4692 33.9182 9.17651 33.3231 8.03202C32.6986 6.83197 31.872 5.85415 30.8655 5.1282C29.9104 4.43558 28.8083 3.99482 27.6034 3.80222C30.4247 3.47257 32.2063 4.41335 33.2423 5.35413ZM12.7587 0.7132C12.924 0.639123 13.1077 0.605788 13.306 0.605788C14.1803 0.605788 15.3889 1.25396 16.7445 1.97992C18.2543 2.79106 19.9882 3.71332 21.8837 4.13556C20.1351 4.10593 18.4931 3.60591 16.9979 3.14663C15.5689 2.70958 14.3383 2.33178 13.273 2.4429C12.5346 2.52068 11.9505 2.8244 11.4877 3.37627C11.5574 3.09848 11.6236 2.81699 11.6934 2.52439C11.9248 1.52805 12.2738 0.935431 12.7624 0.716904L12.7587 0.7132ZM2.41772 25.7846C1.44423 24.7253 0.834428 23.4549 0.654425 22.1067C0.445034 20.5436 0.805039 18.9547 1.72342 17.388C2.7667 15.6064 4.49326 13.9397 6.85534 12.4322C7.16391 12.2322 7.45045 12.0137 7.71862 11.7692C7.68188 11.8433 7.64882 11.9137 7.61208 11.9877C7.21534 12.6063 6.81493 13.11 6.38145 13.5397C2.40302 17.5028 1.9622 20.877 2.28914 23.0104C2.56098 24.7846 3.47937 26.3772 4.87898 27.581C3.93856 27.1328 3.09732 26.5217 2.41404 25.7772L2.41772 25.7846ZM19.2351 38.9518C17.9163 39.437 16.6563 39.5259 15.4918 39.2111C14.4742 38.937 13.5779 38.3666 12.8285 37.5221C12.0607 36.6554 11.4877 35.5406 11.1276 34.2109C10.8485 33.1849 10.5068 32.296 10.0991 31.5256C10.8007 32.3071 11.4252 33.1849 11.866 34.1183C12.8983 36.311 14.6212 37.7703 16.7224 38.2333C17.189 38.337 17.6665 38.3888 18.1514 38.3888C19.4261 38.3888 20.7413 38.0333 22.038 37.3443C21.1123 38.0666 20.1755 38.6073 19.2388 38.9518H19.2351ZM39.153 28.6143C38.6828 29.9626 37.5513 30.9663 35.6925 31.6848C34.6419 32.0886 33.6941 32.2663 32.7868 32.3664C33.3415 32.1812 33.9109 31.9478 34.5096 31.6293C37.1252 30.244 38.4366 28.1143 38.4036 25.2957C38.3926 24.2882 38.2052 23.1845 37.8489 21.9733C38.2346 22.7363 38.5836 23.5178 38.8517 24.2845C39.4616 26.0291 39.5607 27.4439 39.153 28.6143Z" fill="url(#paint0_linear_2519_51792)"/>
</g>
<defs>
<linearGradient id="paint0_linear_2519_51792" x1="11.8807" y1="38.0147" x2="31.8556" y2="3.69629" gradientUnits="userSpaceOnUse">
<stop offset="0.17" stop-color="#6E06C1"/>
<stop offset="0.25" stop-color="#5E24BD"/>
<stop offset="0.46" stop-color="#3D67B4"/>
<stop offset="0.64" stop-color="#239DAD"/>
<stop offset="0.8" stop-color="#0FC3A9"/>
<stop offset="0.92" stop-color="#04DBA6"/>
<stop offset="1" stop-color="#00E4A5"/>
</linearGradient>
</defs>
</svg>

<svg xmlns="http://www.w3.org/2000/svg" fill="none" viewBox="0 0 40 40"><path fill="url(#a)" d="M39.414 24.085c-.573-1.641-1.503-3.323-2.337-4.749-1.065-1.826-1.37-3.611-1.017-5.978.514-3.448-.39-6.608-2.421-8.452-1.334-1.211-3.776-2.437-7.828-1.378-3.3.86-6.344-.77-8.791-2.081C15.14.439 13.651-.357 12.505.165c-.665.304-1.124 1.03-1.403 2.219-.735 3.14-1.444 5.311-2.234 6.833-.657 1.267-1.359 2.078-2.34 2.704-2.439 1.56-4.232 3.297-5.326 5.16-.966 1.663-1.363 3.43-1.143 5.107.195 1.47.86 2.86 1.918 4.008 1.028 1.118 2.377 1.955 3.898 2.43a5.85 5.85 0 0 1 2.938 2c.735.925 1.304 2.152 1.738 3.744.386 1.422 1.003 2.615 1.833 3.556.826.937 1.822 1.567 2.957 1.87a6 6 0 0 0 1.565.204c.82 0 1.672-.16 2.539-.481 1.51-.556 3.008-1.575 4.46-3.027 1.41-1.41 2.707-2.303 4.077-2.803 1.212-.445 2.336-.523 3.523-.608 1.352-.096 2.751-.196 4.408-.833 2.006-.774 3.288-1.93 3.81-3.434.451-1.303.352-2.848-.302-4.73zm-2.877-.097c-.246 2.693-1.517 4.904-3.772 6.575-.992.73-1.958 1.21-2.943 1.63a15.17 15.17 0 0 0 5.055-6.908 15.3 15.3 0 0 0 .805-7.071c.07.14.132.274.198.415.584 1.933.808 3.73.661 5.36zM21.167 34.7q-.264.01-.529.01a14.37 14.37 0 0 1-9.896-3.933C7.899 28.107 6.26 24.485 6.12 20.57a14.63 14.63 0 0 1 3.89-10.512 14.4 14.4 0 0 1 10.124-4.66q.264-.01.53-.01c3.687 0 7.185 1.385 9.896 3.933 2.843 2.67 4.481 6.293 4.62 10.208a14.63 14.63 0 0 1-3.89 10.511 14.4 14.4 0 0 1-10.124 4.66m9.801-25.824a15 15 0 0 0-8.39-3.966c3.993-.404 7.329 1.355 9.298 4.9-.29-.322-.588-.633-.908-.934M14.46 6.114a15 15 0 0 0-4.886 3.53l-.129.148c.17-.377.338-.781.514-1.215.177-.34.357-.685.548-1.048 1.422-2.66 3.857-2.563 6.94-2.44.054 0 .113.003.168.007q-1.628.332-3.155 1.018m-8.942 14.47a15.3 15.3 0 0 0 3.075 8.69C6.7 27.833 5.404 25.862 4.916 23.65c-.5-2.263-.158-4.681.98-7.052-.297 1.3-.43 2.634-.381 3.985zm9.933 13.801c1.668.615 3.41.922 5.184.922.183 0 .367 0 .547-.01a15 15 0 0 0 2.685-.342c-1.487.867-3.049 1.323-4.58 1.323q-.48 0-.948-.06c-1.84-.226-3.475-1.1-4.728-2.518a9 9 0 0 0-.246-.27q1.002.555 2.086.955m18.115-22.56c-.283-.56-.574-1.141-.856-1.719-.992-2.026-2.44-3.63-4.184-4.63a9.4 9.4 0 0 0-3.318-1.133c2.04-.207 3.858.222 5.305 1.27.93.674 1.697 1.582 2.277 2.697.563 1.078.922 2.3 1.077 3.63q.04.343.092.674-.2-.394-.394-.79m-16.101-7.34c-1.546-.063-3.004-.119-4.275.203-.893.226-1.624.623-2.223 1.212.103-.286.202-.575.309-.878.51-1.474 1.256-1.99 2.365-1.99.838 0 1.881.297 3.185.693.933.286 1.97.604 3.079.804a44 44 0 0 1-2.436-.044zm-11.487 10.7c-1.686 2.856-2.255 5.83-1.642 8.6a10 10 0 0 0 1.973 4.097c-1.874-1.156-3.108-2.93-3.424-4.96-.297-1.925.107-4.955 3.564-8.574q-.231.435-.467.837zm7.19 18.92c1.351 1.53 3.115 2.47 5.102 2.714q.507.062 1.025.063c1.194 0 2.399-.259 3.578-.751-2.01 1.396-4.114 1.933-6.021 1.514-1.914-.422-3.49-1.766-4.441-3.785a10 10 0 0 0-.856-1.456 29 29 0 0 1 1.616 1.704zm18.14-1.941a13 13 0 0 0 1.81-1.119c2.403-1.774 3.755-4.13 4.016-7.004.07-.778.055-1.593-.034-2.433.452 1.37.691 2.6.706 3.696.014 1.219-.243 2.3-.768 3.219-.588 1.033-1.532 1.896-2.806 2.57-1.04.552-1.98.841-2.925 1.067zm1.935-26.809c1.881 1.708 2.715 4.667 2.23 7.915a11.7 11.7 0 0 0-.132 2.249 26 26 0 0 0-.327-.726 20.6 20.6 0 0 1-.547-2.92c-.162-1.403-.548-2.695-1.143-3.84-.624-1.2-1.451-2.178-2.457-2.904-.956-.692-2.058-1.133-3.263-1.326 2.822-.33 4.603.611 5.64 1.552M12.76.714a1.3 1.3 0 0 1 .547-.108c.874 0 2.083.648 3.438 1.374 1.51.811 3.244 1.733 5.14 2.156-1.749-.03-3.39-.53-4.886-.99-1.43-.436-2.66-.814-3.725-.703-.738.078-1.322.381-1.785.933.07-.278.136-.559.205-.852.232-.996.58-1.589 1.07-1.807zM2.418 25.783c-.974-1.059-1.584-2.33-1.764-3.677-.209-1.563.151-3.152 1.07-4.719 1.043-1.782 2.77-3.448 5.131-4.956.309-.2.595-.418.864-.663l-.107.219a9 9 0 0 1-1.23 1.552c-3.979 3.963-4.42 7.337-4.093 9.47.272 1.775 1.19 3.367 2.59 4.571a8 8 0 0 1-2.465-1.804zm16.817 13.168c-1.319.485-2.579.574-3.743.26-1.018-.275-1.914-.845-2.664-1.69-.767-.867-1.34-1.981-1.7-3.311-.28-1.026-.621-1.915-1.029-2.685.702.781 1.326 1.659 1.767 2.592 1.032 2.193 2.755 3.652 4.856 4.115q.7.156 1.43.156c1.274 0 2.59-.356 3.886-1.045-.926.723-1.863 1.263-2.8 1.608zm19.918-10.338c-.47 1.349-1.602 2.352-3.46 3.07-1.051.405-1.999.582-2.906.682a11 11 0 0 0 1.723-.737c2.615-1.385 3.927-3.515 3.894-6.333-.011-1.008-.199-2.111-.555-3.323.386.763.735 1.545 1.003 2.312.61 1.744.709 3.159.301 4.33"/><defs><linearGradient id="a" x1="11.881" x2="31.856" y1="38.015" y2="3.696" gradientUnits="userSpaceOnUse"><stop offset=".17" stop-color="#6E06C1"/><stop offset=".25" stop-color="#5E24BD"/><stop offset=".46" stop-color="#3D67B4"/><stop offset=".64" stop-color="#239DAD"/><stop offset=".8" stop-color="#0FC3A9"/><stop offset=".92" stop-color="#04DBA6"/><stop offset="1" stop-color="#00E4A5"/></linearGradient></defs></svg>
